X: 7242
T: Clancy's Fancy
R: reel
M: 4/4
K: Gmajor
B2GB dBGd|BGAG gdBd|cBcd ecAB|ceae gedc|
B2eB dBGd|BGAG gdBd|ceae gedc|B2AF G3d|
B2GB dBGd|DGBd gGBd|cBcd ecAB|ceae gedc|
~B3d ~B3d|BGAG gdBd|ceae gedc|BdAF G3e||
dega bgdb|gbfg egdB|c2Ac ecAB|cdef gedB|
dg~g2 bgdb|g2fg egdB|ceae gedc|BdAF G3e|
dega bgdb|gbfg egdB|c2Ac ecAB|cdef gedB|
dg~g2 bgdb|g2ba gedB|ceae gedc|BdAF G3B||

